X: 32055
T: Peh Trouz Zou Ar En Doar
R: polka
M: 2/4
K: Eminor
|B>e e>d|e2 g2|f>e d>e|1 HB3B>A:|2 HB2 B>d]|
e2 d>B|c>d B>c|B>A G>A|HB3B>A|
B>e e>d|e2 g2|(3fga g>f|H e4||

